client/public/assets/icons/custom/custom29.svg

<?xml version="1.0"?><svg xmlns="http://www.w3.org/2000/svg" width="100" height="100" viewBox="0 0 100 100"><g fill="#fff"><path d="m73.9 28h-1.8c-1.2 0-2.1 1-2.1 2.2v39.8c0 0.1 0 0.3 0.1 0.4l2.5 3.5c0.2 0.2 0.5 0.2 0.8 0l2.5-3.5c0.1-0.1 0.1-0.2 0.1-0.4v-39.8c0-1.2-0.9-2.2-2.1-2.2z m-15.9-8h-28c-3.3 0-6 2.7-6 6v48c0 3.3 2.7 6 6 6h28c3.3 0 6-2.7 6-6v-48c0-3.3-2.7-6-6-6z m-14 58c-1.7 0-3-1.3-3-3s1.3-3 3-3 3 1.3 3 3-1.3 3-3 3z m14-10c0 1.1-0.9 2-2 2h-24c-1.1 0-2-0.9-2-2v-38c0-1.1 0.9-2 2-2h24c1.1 0 2 0.9 2 2v38z"></path></g></svg>

<?xml version="1.0" encoding="utf-8"?>
<!-- Generator: Adobe Illustrator 16.0.0, SVG Export Plug-In . SVG Version: 6.00 Build 0)  -->
<!DOCTYPE svg PUBLIC "-//W3C//DTD SVG 1.1//EN" "http://www.w3.org/Graphics/SVG/1.1/DTD/svg11.dtd">
<svg version="1.1" id="Layer_1" xmlns="http://www.w3.org/2000/svg" xmlns:xlink="http://www.w3.org/1999/xlink" x="0px" y="0px"
	 width="100px" height="100px" viewBox="0 0 100 100" enable-background="new 0 0 100 100" xml:space="preserve">
<g>
	<path fill="#FFFFFF" d="M73.9,28H72.1C70.9,28,70,29,70,30.2V70c0,0.1,0,0.3,0.1,0.4l2.5,3.5c0.2,0.199,0.5,0.199,0.801,0l2.5-3.5
		C76,70.3,76,70.2,76,70V30.2C76,29,75.1,28,73.9,28z"/>
	<path fill="#FFFFFF" d="M58,20H30c-3.3,0-6,2.7-6,6v48c0,3.3,2.7,6,6,6h28c3.3,0,6-2.7,6-6V26C64,22.7,61.3,20,58,20z M44,78
		c-1.7,0-3-1.3-3-3s1.3-3,3-3s3,1.3,3,3S45.7,78,44,78z M58,68c0,1.1-0.9,2-2,2H32c-1.1,0-2-0.9-2-2V30c0-1.1,0.9-2,2-2h24
		c1.1,0,2,0.9,2,2V68z"/>
</g>
</svg>
